X: 1
T: Fanning's
R: jig
M: 6/8
L: 1/8
Z: Contributed 2016-04-07 08:29:24 by Jim jsofgrant@gmail.com
K: Emin
GBd dBG |FEF AFD |EDE GFG |BAB edB |
GBd dBG |FEF AFD |gfe dBA |[1BEE E2 F :|[2BEE E2 f||
|:geb geb |geb bag |fda fda |fda agf |
e3 g3 |baf gef |gfe dBA |[1BEE E2 f :|[2BEE E3 ||

